X:617
T:Reel 617
M:4/4
K:Gmaj
L:1/8
G2BG Bdde|=fdcA fAAf|G2BG Bdde|ddcA AGG2:|B| (3gab ab c'2bg|fdcB ABcA|dg (3gfg bgag|fdcA AGG2|bgag b2ag|fdce fgac'|bgaf gbag|fdcA BGG2|
